icons/modus-solid/hourglass.svg

<svg xmlns="http://www.w3.org/2000/svg" width="24" height="24" fill="currentColor" viewBox="0 0 24 24">
  <path d="m16,22c1.1,0,2-.9,2-2v-3.18c-.01-.53-.22-1.03-.59-1.41l-3.41-3.41,3.41-3.43c.37-.37.58-.88.58-1.41v-3.16c.01-1.1-.89-2-1.99-2h-8c-1.1,0-2,.9-2,2v3.16c0,.53.21,1.04.58,1.42l3.42,3.42-3.41,3.4c-.38.38-.59.89-.59,1.42v3.18c0,1.1.9,2,2,2h8ZM8,7.09v-2.09c0-.55.45-1,1-1h6c.55,0,1,.45,1,1v2.09c0,.27-.11.52-.29.71l-3.71,3.7-3.71-3.71c-.18-.18-.29-.44-.29-.7Z"/>
</svg>

<svg xmlns="http://www.w3.org/2000/svg" width="24" height="24" fill="currentColor" viewBox="0 0 24 24">
  <path d="M16 22c1.1 0 2-.9 2-2v-3.18a2.07 2.07 0 0 0-.59-1.41L14 12l3.41-3.43c.37-.37.58-.88.58-1.41V4C18 2.9 17.1 2 16 2H8c-1.1 0-2 .9-2 2v3.16c0 .53.21 1.04.58 1.42L10 12l-3.41 3.4c-.38.38-.59.89-.59 1.42V20c0 1.1.9 2 2 2zM8 7.09V5c0-.55.45-1 1-1h6c.55 0 1 .45 1 1v2.09c0 .27-.11.52-.29.71L12 11.5 8.29 7.79c-.18-.18-.29-.44-.29-.7"/>
</svg>
